X: 13463
T: Flora Macdonald
R: reel
M: 4/4
K: Edorian
|:~E3F BFDF|~E3F dFDF|E2ED EFGA|BGAG FEDF:|
|:E2ed eEED|Eeef dBAd|B2ed Bcde|1 fdec dBAF:|2 fdec dBAg||
f2ef beef|g3g gaef|gfeg bag(f|f3)^d bagf|
gfeg beg(g|g3)g ^gaef|gfec dBAF|FG2G FEFD||

